frontend/public/svg/interface/setting-2.svg

<svg width="161" height="159" viewBox="0 0 161 159" fill="none" xmlns="http://www.w3.org/2000/svg">
<g clip-path="url(#clip0)">
<path d="M152.628 63.8205C150.879 63.853 149.152 63.8432 147.765 63.8348L146.844 63.8303L138.09 47.4411C138.608 46.8349 139.151 46.2151 139.706 45.5804C141.33 43.723 143.009 41.8016 144.564 39.7288C146.522 37.1205 146.36 34.1007 144.142 31.8494L144.001 31.7058C138.458 26.0753 132.725 20.2532 126.829 14.796C125.154 13.2455 123.675 12.5567 122.197 12.6203C120.635 12.6897 119.088 13.628 117.332 15.571C116.061 16.9761 114.833 18.3818 113.532 19.8705C113.107 20.3582 112.676 20.8504 112.241 21.3475C108.361 17.4167 103.5 15.0692 96.6424 13.8063C96.6424 13.4092 96.6502 13.0159 96.6554 12.6265C96.6716 11.3701 96.6871 10.1839 96.6269 8.97163C96.2771 1.98145 94.3014 0.066889 87.433 0.0649414H87.3773C83.0774 0.0649414 78.7121 0.216762 74.4912 0.364081C72.4831 0.433522 70.4808 0.504134 68.4753 0.558648C65.3918 0.643015 63.5002 2.34271 63.1491 5.34424C62.9198 7.30803 62.7695 9.26951 62.6367 11.0003C62.5946 11.5539 62.5545 12.0826 62.5143 12.5771L47.008 21.3568C46.6899 20.9674 46.3654 20.5656 46.0363 20.1561C44.9655 18.8302 43.8584 17.4582 42.66 16.1278C40.9467 14.225 39.2916 13.2633 37.599 13.1893C35.9498 13.1277 34.2876 13.8817 32.5199 15.5301C27.4763 20.2333 22.664 24.9331 18.2177 29.4994C14.5778 33.2355 14.4042 36.3787 17.599 40.7178C18.7378 42.2623 20.0055 43.7225 21.0238 44.8959C21.3204 45.2379 21.5983 45.5569 21.8497 45.8522L14.934 64.4781C14.217 64.543 13.4889 64.6022 12.7536 64.6619C10.7358 64.8267 8.64942 64.9969 6.5746 65.276C2.79355 65.7835 1.32114 67.4455 1.32243 71.2018C1.32243 78.4509 1.39886 84.4851 1.55238 90.1916C1.60939 92.3144 2.20403 93.885 3.32079 94.8584C4.47383 95.8643 6.11207 96.233 8.33654 95.9818C9.58739 95.8423 10.8344 95.6794 12.082 95.5158L12.4091 95.4724C12.4169 95.5437 12.436 95.6132 12.4654 95.6787L20.286 112.742C19.2794 113.516 18.271 114.286 17.2609 115.054C16.1579 115.895 15.0567 116.737 13.9573 117.581C10.7385 120.06 10.1399 122.887 12.1771 125.983C15.5157 131.054 19.4413 136.912 23.7924 142.261C27.6441 146.998 30.7682 147.336 36.1719 143.612C38.421 142.061 40.6591 140.497 42.914 138.918L45.5557 137.071C51.4387 141.75 57.3056 143.886 63.8183 143.79C63.7587 144.342 63.7004 144.867 63.6441 145.373C63.4757 146.883 63.3299 148.187 63.2386 149.519C63.0015 153.002 63.4698 155.165 64.7563 156.537C66.0105 157.872 68.0562 158.471 71.3728 158.471H71.5866C76.0821 158.438 80.6515 158.358 85.07 158.283C86.8941 158.25 88.7176 158.22 90.5417 158.19C93.0855 158.15 94.8818 157.511 96.0387 156.235C97.1956 154.959 97.6581 153.103 97.447 150.564C97.3045 148.818 97.1457 147.073 97.0026 145.505L96.873 144.087L110.454 138.357L110.735 138.741C111.239 139.429 111.752 140.129 112.259 140.833C112.512 141.185 112.759 141.541 113.006 141.898C113.449 142.539 113.908 143.202 114.402 143.832C116.835 146.935 119.515 147.593 123.092 145.97C124.271 145.476 125.38 144.827 126.389 144.041C127.547 143.077 128.707 142.114 129.869 141.152C134.605 137.225 139.503 133.164 144.157 128.979C146.275 127.073 147.248 125.478 147.314 123.806C147.379 122.101 146.472 120.354 144.373 118.144C142.84 116.532 141.294 114.934 139.874 113.467L138.449 111.991L147.416 94.8519C147.781 94.8169 148.179 94.7799 148.602 94.741C150.017 94.6112 151.776 94.447 153.512 94.2412C157.216 93.8032 158.534 92.5915 159.39 88.8417C161.133 81.2091 159.779 73.7601 158.406 68.1237C157.707 65.2513 155.706 63.7861 152.628 63.8205ZM137.249 90.3402C135.359 97.9852 132.689 103.313 128.592 107.616C126.931 109.361 126.991 111.805 128.758 114.321C130.362 116.606 132.034 118.823 133.805 121.171C134.434 122.006 135.075 122.855 135.726 123.727L120.419 135.914C119.993 135.405 119.574 134.903 119.165 134.407C117.961 132.959 116.825 131.591 115.625 130.246C112.433 126.668 110.757 126.815 106.658 129.174C103.405 130.974 99.9798 132.44 96.4332 133.551C88.2939 136.27 87.6818 139.903 87.641 145.564C87.6358 146.282 87.5872 147.023 87.5354 147.808C87.5218 148.007 87.5088 148.209 87.4959 148.417H72.4027L72.3205 146.6C72.2447 144.908 72.1715 143.281 72.0892 141.656C71.8567 137.099 70.8954 135.449 65.9587 135.271C58.5636 135.004 52.343 132.836 46.9405 128.642C44.8851 127.044 42.5065 127.178 39.668 129.047C37.5517 130.442 35.4691 131.882 33.2634 133.408C32.4546 133.968 31.6259 134.54 30.7773 135.124L21.1294 122.16C21.7262 121.659 22.3152 121.161 22.8965 120.665C24.569 119.244 26.1477 117.901 27.8099 116.623C30.5526 114.514 30.7799 113.276 28.9714 110.31C25.691 104.93 22.3032 98.4129 22.0447 90.8666C21.9553 88.2233 20.4071 86.8351 17.4455 86.7397C15.7037 86.6832 13.9476 86.6956 12.0813 86.7072C11.4199 86.7118 10.7404 86.717 10.0356 86.7189L9.37816 74.0197C10.333 73.9191 11.2567 73.814 12.1565 73.7121C14.5532 73.4395 16.8204 73.1832 19.0682 73.0787C21.8439 72.9489 23.4678 71.4705 23.8953 68.6779C25.1417 60.5447 27.4407 54.2416 31.1297 48.8395C31.7327 48.0721 32.0641 47.126 32.0721 46.1495C32.08 45.1729 31.7641 44.2211 31.1738 43.4439C29.8143 41.4706 28.4493 39.5035 27.0786 37.5422L25.8199 35.7335L38.1775 23.1322C38.6646 23.6081 39.152 24.0842 39.6395 24.5601C41.0646 25.9535 42.535 27.3929 44.0087 28.7915C46.9004 31.5328 47.7237 31.1576 50.7417 29.1315C54.5571 26.5686 58.6393 23.909 62.9101 22.027C66.5832 20.409 69.868 18.5291 69.7119 13.3665C69.73 12.276 69.8771 11.1916 70.1504 10.1358C70.2385 9.72503 70.3273 9.30319 70.4096 8.86708H87.6235C87.6274 9.22207 87.6345 9.58076 87.641 9.94224C87.6656 11.2318 87.6908 12.5643 87.5976 13.8688C87.2322 18.9483 88.9287 21.1055 93.6484 21.5618C98.6363 22.0446 102.998 24.2655 107.783 28.7655C110.329 31.1576 111.735 31.6078 114.554 29.3701C116.433 27.8774 118.174 26.3025 120.015 24.6327C120.647 24.0607 121.284 23.4865 121.928 22.9098L134.27 35.9296C133.979 36.2353 133.668 36.5589 133.341 36.899C132.072 38.2203 130.634 39.7183 129.211 41.2856C125.402 45.4826 125.378 47.0614 129.056 51.2149C132.954 55.5022 135.7 60.7119 137.036 66.3546C137.782 69.6177 139.653 71.2044 142.924 71.3511C144.494 71.4205 146.064 71.5062 147.833 71.6003L149.883 71.7093L150.611 85.3424H148.697C146.991 85.3385 145.451 85.3372 143.91 85.3496C139.896 85.3833 138.152 86.6897 137.249 90.3402Z" fill="black"/>
<path d="M86.0457 38.2688C79.691 37.68 73.2871 38.5854 67.3438 40.9129C61.4 43.2404 56.0807 46.9257 51.8092 51.6755C47.5377 56.4254 44.4317 62.1087 42.7387 68.2729C41.0457 74.4376 40.8122 80.9125 42.057 87.1829C45.3127 102.636 53.3095 112.411 66.5056 117.066C70.3961 118.412 74.4881 119.076 78.6041 119.031C82.0288 119.003 85.4445 118.671 88.8117 118.039C110.577 114.138 122.561 98.8327 122.551 74.9399V74.925C122.287 67.4507 119.8 60.225 115.409 54.1764C108.493 44.9116 98.6144 39.559 86.0457 38.2688ZM112.222 84.9796C109.636 97.9339 101.48 105.46 87.2888 107.988C82.6947 108.806 76.6685 109.516 70.801 107.741C60.5827 104.648 54.449 97.4491 52.0496 85.7357C51.6742 83.6726 51.4284 81.588 51.3138 79.4944C51.2399 78.521 51.1667 77.5527 51.0676 76.587C51.0495 72.6944 51.8161 68.8382 53.3216 65.2493C54.827 61.661 57.0403 58.4138 59.8287 55.7029C65.7684 49.9704 74.1124 46.9941 83.2674 47.2835C93.1511 47.608 100.981 51.1691 106.54 57.8621C112.559 65.1111 114.418 73.9827 112.222 84.9796Z" fill="black"/>
</g>
<defs>
<clipPath id="clip0">
<rect width="160" height="159" fill="white" transform="translate(0.777344)"/>
</clipPath>
</defs>
</svg>

<svg xmlns="http://www.w3.org/2000/svg" width="161" height="159" fill="none" viewBox="0 0 161 159"><g fill="#000" clip-path="url(#a)"><path d="M152.628 63.82a197 197 0 0 1-4.863.015l-.921-.005-8.754-16.389c.518-.606 1.061-1.226 1.616-1.86 1.624-1.858 3.303-3.78 4.858-5.852 1.958-2.608 1.796-5.628-.422-7.88l-.141-.143c-5.543-5.63-11.276-11.453-17.172-16.91-1.675-1.55-3.154-2.24-4.632-2.176-1.562.07-3.109 1.008-4.865 2.951a325 325 0 0 0-3.8 4.3l-1.291 1.477c-3.88-3.931-8.741-6.279-15.599-7.542 0-.397.008-.79.013-1.18.017-1.256.032-2.442-.028-3.654-.35-6.99-2.326-8.905-9.194-8.907h-.056c-4.3 0-8.665.152-12.886.3-2.008.069-4.01.14-6.016.194-3.083.084-4.975 1.784-5.326 4.785-.23 1.964-.38 3.926-.512 5.656-.042.554-.083 1.083-.123 1.577l-15.506 8.78q-.478-.586-.972-1.2c-1.07-1.327-2.178-2.699-3.376-4.03-1.713-1.902-3.368-2.864-5.061-2.938-1.65-.061-3.311.693-5.08 2.341a417 417 0 0 0-14.3 13.97c-3.64 3.736-3.814 6.879-.619 11.218 1.139 1.544 2.407 3.004 3.425 4.178.296.342.574.66.826.956l-6.916 18.626q-1.076.096-2.18.184c-2.018.165-4.105.335-6.18.614-3.78.508-5.253 2.17-5.252 5.926 0 7.249.077 13.283.23 18.99.057 2.122.652 3.693 1.769 4.666 1.153 1.006 2.791 1.375 5.016 1.124 1.25-.14 2.497-.303 3.745-.466l.327-.044q.012.108.056.207l7.821 17.063a701 701 0 0 1-3.025 2.312q-1.654 1.261-3.304 2.527c-3.219 2.479-3.817 5.306-1.78 8.402 3.339 5.071 7.264 10.929 11.615 16.278 3.852 4.737 6.976 5.075 12.38 1.351 2.249-1.551 4.487-3.115 6.742-4.694l2.642-1.847c5.883 4.679 11.75 6.815 18.262 6.719l-.174 1.583c-.168 1.51-.314 2.814-.405 4.146-.237 3.483.23 5.646 1.517 7.018 1.254 1.335 3.3 1.934 6.617 1.934h.214c4.495-.033 9.064-.113 13.483-.188q2.736-.049 5.472-.093c2.543-.04 4.34-.679 5.497-1.955s1.62-3.132 1.408-5.671a531 531 0 0 0-.444-5.059l-.13-1.418 13.581-5.73.281.384c.504.688 1.017 1.388 1.524 2.092q.378.529.747 1.065c.443.641.902 1.304 1.396 1.934 2.433 3.103 5.113 3.761 8.69 2.138a14.5 14.5 0 0 0 3.297-1.929q1.737-1.446 3.48-2.889c4.736-3.927 9.634-7.988 14.288-12.173 2.118-1.906 3.091-3.501 3.157-5.173.065-1.705-.842-3.452-2.941-5.662a735 735 0 0 0-4.499-4.677l-1.425-1.476 8.967-17.14 1.186-.11c1.415-.13 3.174-.294 4.91-.5 3.704-.438 5.022-1.65 5.878-5.4 1.743-7.632.389-15.08-.984-20.717-.699-2.873-2.7-4.338-5.778-4.303m-15.379 26.52c-1.89 7.645-4.56 12.973-8.657 17.276-1.661 1.745-1.601 4.189.166 6.705 1.604 2.285 3.276 4.502 5.047 6.85.629.835 1.27 1.684 1.921 2.556l-15.307 12.187q-.64-.763-1.254-1.507c-1.204-1.448-2.34-2.816-3.54-4.161-3.192-3.578-4.868-3.431-8.967-1.072a55.2 55.2 0 0 1-10.225 4.377c-8.14 2.719-8.751 6.352-8.792 12.013a39 39 0 0 1-.106 2.244l-.04.609H72.404l-.083-1.817a848 848 0 0 0-.23-4.944c-.233-4.557-1.195-6.207-6.131-6.385-7.395-.267-13.616-2.435-19.019-6.629-2.055-1.598-4.433-1.464-7.272.405-2.116 1.395-4.199 2.835-6.405 4.361q-1.212.84-2.486 1.716L21.13 122.16a288 288 0 0 0 1.767-1.495c1.673-1.421 3.252-2.764 4.914-4.042 2.743-2.109 2.97-3.347 1.161-6.313-3.28-5.38-6.668-11.897-6.926-19.443-.09-2.644-1.638-4.032-4.6-4.127-1.741-.057-3.497-.044-5.364-.033q-.99.008-2.045.012l-.658-12.7c.955-.1 1.879-.205 2.778-.307 2.397-.273 4.664-.529 6.912-.633 2.776-.13 4.4-1.608 4.827-4.401 1.247-8.133 3.546-14.436 7.235-19.838a4.41 4.41 0 0 0 .044-5.396q-2.04-2.96-4.095-5.902l-1.26-1.809 12.359-12.6 1.462 1.427c1.425 1.393 2.895 2.833 4.369 4.232 2.891 2.74 3.715 2.366 6.733.34 3.815-2.563 7.897-5.223 12.168-7.105 3.673-1.618 6.958-3.498 6.802-8.66.018-1.091.165-2.175.438-3.231q.134-.616.26-1.269h17.214q.005.533.017 1.075c.025 1.29.05 2.622-.043 3.927-.366 5.08 1.33 7.236 6.05 7.693 4.988.483 9.35 2.703 14.135 7.203 2.546 2.393 3.952 2.843 6.771.605 1.879-1.493 3.62-3.068 5.461-4.737q.948-.858 1.913-1.723l12.342 13.02q-.437.458-.929.969a214 214 0 0 0-4.13 4.387c-3.809 4.197-3.833 5.775-.155 9.929a34.2 34.2 0 0 1 7.98 15.14c.746 3.263 2.617 4.85 5.888 4.996 1.57.07 3.14.155 4.909.25l2.05.108.728 13.633h-1.914a461 461 0 0 0-4.787.008c-4.014.033-5.758 1.34-6.661 4.99"/><path d="M86.046 38.269a40.9 40.9 0 0 0-18.702 2.644 41 41 0 0 0-15.535 10.763 41.1 41.1 0 0 0-9.07 16.597 41.15 41.15 0 0 0-.682 18.91c3.256 15.453 11.252 25.228 24.449 29.883a35.8 35.8 0 0 0 12.098 1.965c3.425-.028 6.84-.36 10.208-.992 21.765-3.901 33.749-19.206 33.739-43.1v-.014a37.6 37.6 0 0 0-7.142-20.749c-6.916-9.264-16.795-14.617-29.363-15.907m26.176 46.71c-2.586 12.955-10.742 20.481-24.933 23.009-4.594.818-10.62 1.528-16.488-.247-10.218-3.093-16.352-10.292-18.751-22.005a50 50 0 0 1-.736-6.242c-.074-.973-.147-1.941-.246-2.907a29 29 0 0 1 2.254-11.338 28.9 28.9 0 0 1 6.507-9.546c5.94-5.733 14.283-8.709 23.438-8.42 9.884.325 17.714 3.886 23.273 10.58 6.019 7.248 7.878 16.12 5.682 27.117"/></g><defs><clipPath id="a"><path fill="#fff" d="M.777 0h160v159h-160z"/></clipPath></defs></svg>
